static/assets/img/icons/theme/files/folder-error.svg

<svg height="24" viewBox="0 0 24 24" width="24" xmlns="http://www.w3.org/2000/svg"><g fill="none" fill-rule="evenodd"><path d="m0 0h24v24h-24z" opacity="0"/><g fill="#000"><path d="m2 13.1500272v-7.6500272c0-.82842712.67157288-1.5 1.5-1.5h2.87867966c.39782473 0 .7793556.15803526 1.06066017.43933983l2.56066017 2.56066017h10.5c.8284271 0 1.5.67157288 1.5 1.5v11c0 .8284271-.6715729 1.5-1.5 1.5h-9.5164023c.0108776-.1652618.0164023-.3319857.0164023-.5 0-4.1421356-3.35786438-7.5-7.5-7.5-.51369876 0-1.01533509.0516454-1.5.1500272z"/><path d="m4.5 16c.55228475 0 1 .4477153 1 1v2c0 .5522847-.44771525 1-1 1s-1-.4477153-1-1v-2c0-.5522847.44771525-1 1-1zm0 7c-.55228475 0-1-.4477153-1-1s.44771525-1 1-1 1 .4477153 1 1-.44771525 1-1 1z" opacity=".3"/></g></g></svg>

<svg width="24px" height="24px" viewBox="0 0 24 24" version="1.1" xmlns="http://www.w3.org/2000/svg" xmlns:xlink="http://www.w3.org/1999/xlink">
    <title>Icon For Folder-error</title>
    <g stroke="none" stroke-width="1" fill="none" fill-rule="evenodd">
        <rect opacity="0" x="0" y="0" width="24" height="24"></rect>
        <path d="M2,13.1500272 L2,5.5 C2,4.67157288 2.67157288,4 3.5,4 L6.37867966,4 C6.77650439,4 7.15803526,4.15803526 7.43933983,4.43933983 L10,7 L20.5,7 C21.3284271,7 22,7.67157288 22,8.5 L22,19.5 C22,20.3284271 21.3284271,21 20.5,21 L10.9835977,21 C10.9944753,20.8347382 11,20.6680143 11,20.5 C11,16.3578644 7.64213562,13 3.5,13 C2.98630124,13 2.48466491,13.0516454 2,13.1500272 Z" fill="#000000"></path>
        <path d="M4.5,16 C5.05228475,16 5.5,16.4477153 5.5,17 L5.5,19 C5.5,19.5522847 5.05228475,20 4.5,20 C3.94771525,20 3.5,19.5522847 3.5,19 L3.5,17 C3.5,16.4477153 3.94771525,16 4.5,16 Z M4.5,23 C3.94771525,23 3.5,22.5522847 3.5,22 C3.5,21.4477153 3.94771525,21 4.5,21 C5.05228475,21 5.5,21.4477153 5.5,22 C5.5,22.5522847 5.05228475,23 4.5,23 Z" fill="#000000" opacity="0.3"></path>
    </g>
</svg>
